build/category/LevelUpSolid.svg

<svg xmlns="http://www.w3.org/2000/svg" fill="none" viewBox="0 0 24 24" focusable="false"><path d="M0 0H24V24H0z"/><path fill="#74767B" fill-rule="evenodd" d="M3 12C3 16.9706 7.02944 21 12 21C16.9706 21 21 16.9706 21 12C21 7.02944 16.9706 3 12 3C7.02944 3 3 7.02944 3 12ZM15.7403 10.4596C15.9942 10.7135 16.4057 10.7135 16.6596 10.4596C16.9134 10.2058 16.9134 9.79422 16.6596 9.54038L13.6596 6.54038C13.4057 6.28654 12.9942 6.28654 12.7403 6.54038L9.74033 9.54038C9.48649 9.79422 9.48649 10.2058 9.74033 10.4596C9.99417 10.7135 10.4057 10.7135 10.6596 10.4596L12.55 8.56924L12.55 13C12.55 14.2979 11.4978 15.35 10.2 15.35L8.69995 15.35C8.34097 15.35 8.04995 15.641 8.04995 16C8.04995 16.359 8.34097 16.65 8.69995 16.65L10.2 16.65C12.2158 16.65 13.85 15.0158 13.85 13L13.85 8.56924L15.7403 10.4596Z"/></svg>

<svg xmlns="http://www.w3.org/2000/svg" fill="none" viewBox="0 0 24 24" focusable="false"><path fill="#74767B" fill-rule="evenodd" d="M3 12c0 4.97 4.02 9 9 9a9 9 0 0 0 9-9c0-4.98-4.03-9-9-9-4.98 0-9 4.02-9 9m12.74-1.55c.25.26.66.26.91 0 .26-.25.26-.66 0-.91l-3-3a.63.63 0 0 0-.91 0l-3 3c-.26.25-.26.66 0 .91.25.26.66.26.91 0l1.89-1.89V13c0 1.29-1.05 2.35-2.34 2.35H8.7c-.36 0-.66.29-.66.65 0 .35.3.65.66.65h1.5c2.01 0 3.65-1.64 3.65-3.65V8.56z"/></svg>
